Newaita-dark/apps/16/conky-manager.svg

<svg height="16" viewBox="0 0 16 16" width="16" xmlns="http://www.w3.org/2000/svg" xmlns:xlink="http://www.w3.org/1999/xlink"><linearGradient id="a"><stop offset="0" stop-opacity=".313726"/><stop offset=".222222" stop-opacity=".27451"/><stop offset="1" stop-opacity="0"/></linearGradient><radialGradient id="b" cx="450.908936" cy="189.579361" gradientTransform="matrix(.00000009 -.0390662 -.0703192 -.00000005 23.41924 31.632285)" gradientUnits="userSpaceOnUse" r="21.166656" xlink:href="#a"/><radialGradient id="c" cx="450.908936" cy="189.579361" gradientTransform="matrix(-.00000009 .0390662 .0703192 .00000005 -6.054297 -3.92912)" gradientUnits="userSpaceOnUse" r="21.166656" xlink:href="#a"/><radialGradient id="d" cx="450.908936" cy="189.579361" gradientTransform="matrix(-.00000009 -.0390662 .0703192 -.00000005 -6.054297 31.632285)" gradientUnits="userSpaceOnUse" r="21.166656" xlink:href="#a"/><radialGradient id="e" cx="450.908936" cy="189.579361" gradientTransform="matrix(.00000009 .0390662 -.0703192 .00000005 23.419239 -3.92912)" gradientUnits="userSpaceOnUse" r="21.166656" xlink:href="#a"/><linearGradient id="f" gradientTransform="matrix(.00668003 0 0 .031253 6.563455 6.554013)" gradientUnits="userSpaceOnUse" x1="255.323059" x2="255.323044" y1="233.5" y2="254.666656"><stop offset="0" stop-opacity=".27451"/><stop offset="1" stop-opacity="0"/></linearGradient><linearGradient id="g" gradientUnits="userSpaceOnUse" x1="12.56891449997" x2="12.56891449997" y1="16.001533" y2=".125009"><stop offset="0" stop-color="#9ccc65"/><stop offset="1" stop-color="#aed581"/></linearGradient><linearGradient id="h" gradientUnits="userSpaceOnUse" x1="8.26902325003" x2="8.26902325003" y1="16.001533" y2="-.20575174998"><stop offset="0" stop-color="#42a5f5"/><stop offset="1" stop-color="#64b5f6"/></linearGradient><linearGradient id="i" gradientUnits="userSpaceOnUse" x1="8.59978349997" x2="8.59978349997" y1="16.001533" y2=".125009"><stop offset="0" stop-color="#ffa726"/><stop offset="1" stop-color="#ffb74d"/></linearGradient><linearGradient id="j" gradientUnits="userSpaceOnUse" x1="4.63065300002" x2="4.63065300002" y1="16.001533" y2=".125009"><stop offset="0" stop-color="#f44336"/><stop offset="1" stop-color="#ef5350"/></linearGradient><path d="m10.253906 13.851562h1.324219v-.660156h-1.324219zm0 0" fill="url(#b)"/><path d="m7.113281 13.851562h-1.324219v.660157h1.324219zm0 0" fill="url(#c)"/><path d="m7.113281 13.851562h-1.324219v-.660156h1.324219zm0 0" fill="url(#d)"/><path d="m10.253906 13.851562h1.324219v.660157h-1.324219zm0 0" fill="url(#e)"/><path d="m7.113281 13.6875h3.140625v.824219h-3.140625zm0 0" fill="url(#f)"/><path d="m9.59375 5.746094h3.96875c.363281 0 .660156.296875.660156.664062v3.96875c0 .363282-.296875.660156-.660156.660156h-3.96875c-.367188 0-.664062-.296874-.664062-.660156v-3.96875c0-.367187.296874-.664062.664062-.664062zm0 0" fill="url(#g)"/><path d="m9.59375 5.746094c-.367188 0-.664062.296875-.664062.664062v.164063c0-.367188.296874-.660157.664062-.660157h3.96875c.363281 0 .660156.292969.660156.660157v-.164063c0-.367187-.296875-.664062-.660156-.664062zm0 0" fill="#fff" fill-opacity=".392157"/><path d="m306.970686-31.142558h126.987873c11.62389 0 21.122983 9.499093 21.122983 21.247971v126.987874c0 11.62389-9.499093 21.122983-21.122983 21.122983h-126.987873c-11.748878 0-21.247971-9.499093-21.247971-21.122983v-126.987874c0-11.748878 9.499093-21.247971 21.247971-21.247971zm0 0" fill="none" stroke="#212121" stroke-width="3" transform="matrix(.031253 0 0 .031253 0 6.719392)"/><path d="m6.613281 1.449219h3.972657c.363281 0 .660156.296875.660156.660156v3.96875c0 .367187-.296875.660156-.660156.660156h-3.972657c-.363281 0-.660156-.292969-.660156-.660156v-3.96875c0-.363281.296875-.660156.660156-.660156zm0 0" fill="url(#h)"/><path d="m8.929688 10.378906v.246094c0 .367188.296874.664062.664062.664062h3.96875c.363281 0 .660156-.296874.660156-.664062v-.246094c0 .367188-.296875.660156-.660156.660156h-3.96875c-.367188 0-.664062-.292968-.664062-.660156zm0 0" fill-opacity=".235294"/><path d="m6.613281 8.726562h3.972657c.363281 0 .660156.292969.660156.660157v3.96875c0 .367187-.296875.660156-.660156.660156h-3.972657c-.363281 0-.660156-.292969-.660156-.660156v-3.96875c0-.367188.296875-.660157.660156-.660157zm0 0" fill="url(#i)"/><path d="m6.613281 8.726562c-.363281 0-.660156.292969-.660156.660157v.164062c0-.367187.296875-.660156.660156-.660156h3.972657c.363281 0 .660156.292969.660156.660156v-.164062c0-.367188-.296875-.660157-.660156-.660157zm0 0" fill="#fff" fill-opacity=".392157"/><path d="m211.604793-168.629428h127.112861c11.62389 0 21.122983 9.499093 21.122983 21.122983v126.987873c0 11.748878-9.499093 21.122983-21.122983 21.122983h-127.112861c-11.62389 0-21.122983-9.374105-21.122983-21.122983v-126.987873c0-11.62389 9.499093-21.122983 21.122983-21.122983zm0 0" fill="none" stroke="#212121" stroke-width="3" transform="matrix(.031253 0 0 .031253 0 6.719392)"/><path d="m211.604793 64.223336h127.112861c11.62389 0 21.122983 9.374104 21.122983 21.122982v126.987874c0 11.748878-9.499093 21.122982-21.122983 21.122982h-127.112861c-11.62389 0-21.122983-9.374104-21.122983-21.122982v-126.987874c0-11.748878 9.499093-21.122982 21.122983-21.122982zm0 0" fill="none" stroke="#212121" stroke-width="3" transform="matrix(.031253 0 0 .031253 0 6.719392)"/><path d="m2.316406 5.085938h3.96875c.363282 0 .660156.296874.660156.660156v3.972656c0 .363281-.296874.660156-.660156.660156h-3.96875c-.367187 0-.664062-.296875-.664062-.660156v-3.972656c0-.363282.296875-.660156.664062-.660156zm0 0" fill="url(#j)"/><path d="m6.613281 1.449219c-.363281 0-.660156.292969-.660156.660156v.164063c0-.363282.296875-.660157.660156-.660157h3.972657c.363281 0 .660156.296875.660156.660157v-.164063c0-.367187-.296875-.660156-.660156-.660156zm0 0" fill="#fff" fill-opacity=".392157"/><path d="m11.246094 6.078125c0 .367187-.296875.660156-.660156.660156h-1.65625v.25h1.65625c.363281 0 .660156-.296875.660156-.660156zm0 0" fill-opacity=".235294"/><path d="m2.316406 5.085938c-.367187 0-.664062.296874-.664062.660156v.167968c0-.367187.296875-.664062.664062-.664062h3.96875c.367188 0 .660156.296875.660156.664062v-.167968c0-.363282-.292968-.660156-.660156-.660156zm0 0" fill="#fff" fill-opacity=".392157"/><path d="m6.945312 9.71875c0 .363281-.292968.660156-.660156.660156h-.332031v.246094h.332031c.367188 0 .660156-.292969.660156-.660156zm0 0" fill-opacity=".235294"/><path d="m74.117922-52.26554h126.987873c11.62389 0 21.122983 9.499093 21.122983 21.122982v127.112862c0 11.62389-9.499093 21.122983-21.122983 21.122983h-126.987873c-11.748878 0-21.247971-9.499093-21.247971-21.122983v-127.112862c0-11.623889 9.499093-21.122982 21.247971-21.122982zm0 0" fill="none" stroke="#212121" stroke-width="3" transform="matrix(.031253 0 0 .031253 0 6.719392)"/></svg>

<?xml version="1.0" encoding="UTF-8"?>
<svg xmlns="http://www.w3.org/2000/svg" xmlns:xlink="http://www.w3.org/1999/xlink" width="16px" height="16px" viewBox="0 0 16 16" version="1.1">
<defs>
<radialGradient id="radial0" gradientUnits="userSpaceOnUse" cx="450.908936" cy="189.579361" fx="450.908936" fy="189.579361" r="21.166656" gradientTransform="matrix(0.0000000870852,-0.0390662,-0.0703192,-0.0000000507693,23.41924,31.632285)">
<stop offset="0" style="stop-color:rgb(0%,0%,0%);stop-opacity:0.313726;"/>
<stop offset="0.222222" style="stop-color:rgb(0%,0%,0%);stop-opacity:0.27451;"/>
<stop offset="1" style="stop-color:rgb(0%,0%,0%);stop-opacity:0;"/>
</radialGradient>
<radialGradient id="radial1" gradientUnits="userSpaceOnUse" cx="450.908936" cy="189.579361" fx="450.908936" fy="189.579361" r="21.166656" gradientTransform="matrix(-0.0000000870852,0.0390662,0.0703192,0.0000000507693,-6.054297,-3.92912)">
<stop offset="0" style="stop-color:rgb(0%,0%,0%);stop-opacity:0.313726;"/>
<stop offset="0.222222" style="stop-color:rgb(0%,0%,0%);stop-opacity:0.27451;"/>
<stop offset="1" style="stop-color:rgb(0%,0%,0%);stop-opacity:0;"/>
</radialGradient>
<radialGradient id="radial2" gradientUnits="userSpaceOnUse" cx="450.908936" cy="189.579361" fx="450.908936" fy="189.579361" r="21.166656" gradientTransform="matrix(-0.0000000870852,-0.0390662,0.0703192,-0.0000000507693,-6.054297,31.632285)">
<stop offset="0" style="stop-color:rgb(0%,0%,0%);stop-opacity:0.313726;"/>
<stop offset="0.222222" style="stop-color:rgb(0%,0%,0%);stop-opacity:0.27451;"/>
<stop offset="1" style="stop-color:rgb(0%,0%,0%);stop-opacity:0;"/>
</radialGradient>
<radialGradient id="radial3" gradientUnits="userSpaceOnUse" cx="450.908936" cy="189.579361" fx="450.908936" fy="189.579361" r="21.166656" gradientTransform="matrix(0.0000000870852,0.0390662,-0.0703192,0.0000000507693,23.419239,-3.92912)">
<stop offset="0" style="stop-color:rgb(0%,0%,0%);stop-opacity:0.313726;"/>
<stop offset="0.222222" style="stop-color:rgb(0%,0%,0%);stop-opacity:0.27451;"/>
<stop offset="1" style="stop-color:rgb(0%,0%,0%);stop-opacity:0;"/>
</radialGradient>
<linearGradient id="linear0" gradientUnits="userSpaceOnUse" x1="255.323059" y1="233.5" x2="255.323044" y2="254.666656" gradientTransform="matrix(0.00668003,0,0,0.031253,6.563455,6.554013)">
<stop offset="0" style="stop-color:rgb(0%,0%,0%);stop-opacity:0.27451;"/>
<stop offset="1" style="stop-color:rgb(0%,0%,0%);stop-opacity:0;"/>
</linearGradient>
<linearGradient id="linear1" gradientUnits="userSpaceOnUse" x1="402.166656" y1="297" x2="402.166656" y2="-211" gradientTransform="matrix(0.031253,0,0,0.031253,0,6.719392)">
<stop offset="0" style="stop-color:rgb(61.176473%,80.000001%,39.607844%);stop-opacity:1;"/>
<stop offset="1" style="stop-color:rgb(68.235296%,83.529413%,50.588238%);stop-opacity:1;"/>
</linearGradient>
<linearGradient id="linear2" gradientUnits="userSpaceOnUse" x1="264.583344" y1="297" x2="264.583344" y2="-221.583328" gradientTransform="matrix(0.031253,0,0,0.031253,0,6.719392)">
<stop offset="0" style="stop-color:rgb(25.882354%,64.705884%,96.078432%);stop-opacity:1;"/>
<stop offset="1" style="stop-color:rgb(39.215687%,70.980394%,96.470588%);stop-opacity:1;"/>
</linearGradient>
<linearGradient id="linear3" gradientUnits="userSpaceOnUse" x1="275.166656" y1="297" x2="275.166656" y2="-211" gradientTransform="matrix(0.031253,0,0,0.031253,0,6.719392)">
<stop offset="0" style="stop-color:rgb(100%,65.490198%,14.901961%);stop-opacity:1;"/>
<stop offset="1" style="stop-color:rgb(100%,71.764708%,30.19608%);stop-opacity:1;"/>
</linearGradient>
<linearGradient id="linear4" gradientUnits="userSpaceOnUse" x1="148.166672" y1="297" x2="148.166672" y2="-211" gradientTransform="matrix(0.031253,0,0,0.031253,0,6.719392)">
<stop offset="0" style="stop-color:rgb(95.686275%,26.274511%,21.176471%);stop-opacity:1;"/>
<stop offset="1" style="stop-color:rgb(93.725491%,32.549021%,31.37255%);stop-opacity:1;"/>
</linearGradient>
</defs>
<g id="surface1">
<path style=" stroke:none;fill-rule:nonzero;fill:url(#radial0);" d="M 10.253906 13.851562 L 11.578125 13.851562 L 11.578125 13.191406 L 10.253906 13.191406 Z M 10.253906 13.851562 "/>
<path style=" stroke:none;fill-rule:nonzero;fill:url(#radial1);" d="M 7.113281 13.851562 L 5.789062 13.851562 L 5.789062 14.511719 L 7.113281 14.511719 Z M 7.113281 13.851562 "/>
<path style=" stroke:none;fill-rule:nonzero;fill:url(#radial2);" d="M 7.113281 13.851562 L 5.789062 13.851562 L 5.789062 13.191406 L 7.113281 13.191406 Z M 7.113281 13.851562 "/>
<path style=" stroke:none;fill-rule:nonzero;fill:url(#radial3);" d="M 10.253906 13.851562 L 11.578125 13.851562 L 11.578125 14.511719 L 10.253906 14.511719 Z M 10.253906 13.851562 "/>
<path style=" stroke:none;fill-rule:nonzero;fill:url(#linear0);" d="M 7.113281 13.6875 L 10.253906 13.6875 L 10.253906 14.511719 L 7.113281 14.511719 Z M 7.113281 13.6875 "/>
<path style=" stroke:none;fill-rule:nonzero;fill:url(#linear1);" d="M 9.59375 5.746094 L 13.5625 5.746094 C 13.925781 5.746094 14.222656 6.042969 14.222656 6.410156 L 14.222656 10.378906 C 14.222656 10.742188 13.925781 11.039062 13.5625 11.039062 L 9.59375 11.039062 C 9.226562 11.039062 8.929688 10.742188 8.929688 10.378906 L 8.929688 6.410156 C 8.929688 6.042969 9.226562 5.746094 9.59375 5.746094 Z M 9.59375 5.746094 "/>
<path style=" stroke:none;fill-rule:nonzero;fill:rgb(100%,100%,100%);fill-opacity:0.392157;" d="M 9.59375 5.746094 C 9.226562 5.746094 8.929688 6.042969 8.929688 6.410156 L 8.929688 6.574219 C 8.929688 6.207031 9.226562 5.914062 9.59375 5.914062 L 13.5625 5.914062 C 13.925781 5.914062 14.222656 6.207031 14.222656 6.574219 L 14.222656 6.410156 C 14.222656 6.042969 13.925781 5.746094 13.5625 5.746094 Z M 9.59375 5.746094 "/>
<path style="fill:none;stroke-width:3;stroke-linecap:butt;stroke-linejoin:miter;stroke:rgb(12.941177%,12.941177%,12.941177%);stroke-opacity:1;stroke-miterlimit:4;" d="M 306.970686 -31.142558 L 433.958559 -31.142558 C 445.582449 -31.142558 455.081542 -21.643465 455.081542 -9.894587 L 455.081542 117.093287 C 455.081542 128.717177 445.582449 138.21627 433.958559 138.21627 L 306.970686 138.21627 C 295.221808 138.21627 285.722715 128.717177 285.722715 117.093287 L 285.722715 -9.894587 C 285.722715 -21.643465 295.221808 -31.142558 306.970686 -31.142558 Z M 306.970686 -31.142558 " transform="matrix(0.031253,0,0,0.031253,0,6.719392)"/>
<path style=" stroke:none;fill-rule:nonzero;fill:url(#linear2);" d="M 6.613281 1.449219 L 10.585938 1.449219 C 10.949219 1.449219 11.246094 1.746094 11.246094 2.109375 L 11.246094 6.078125 C 11.246094 6.445312 10.949219 6.738281 10.585938 6.738281 L 6.613281 6.738281 C 6.25 6.738281 5.953125 6.445312 5.953125 6.078125 L 5.953125 2.109375 C 5.953125 1.746094 6.25 1.449219 6.613281 1.449219 Z M 6.613281 1.449219 "/>
<path style=" stroke:none;fill-rule:nonzero;fill:rgb(0%,0%,0%);fill-opacity:0.235294;" d="M 8.929688 10.378906 L 8.929688 10.625 C 8.929688 10.992188 9.226562 11.289062 9.59375 11.289062 L 13.5625 11.289062 C 13.925781 11.289062 14.222656 10.992188 14.222656 10.625 L 14.222656 10.378906 C 14.222656 10.746094 13.925781 11.039062 13.5625 11.039062 L 9.59375 11.039062 C 9.226562 11.039062 8.929688 10.746094 8.929688 10.378906 Z M 8.929688 10.378906 "/>
<path style=" stroke:none;fill-rule:nonzero;fill:url(#linear3);" d="M 6.613281 8.726562 L 10.585938 8.726562 C 10.949219 8.726562 11.246094 9.019531 11.246094 9.386719 L 11.246094 13.355469 C 11.246094 13.722656 10.949219 14.015625 10.585938 14.015625 L 6.613281 14.015625 C 6.25 14.015625 5.953125 13.722656 5.953125 13.355469 L 5.953125 9.386719 C 5.953125 9.019531 6.25 8.726562 6.613281 8.726562 Z M 6.613281 8.726562 "/>
<path style=" stroke:none;fill-rule:nonzero;fill:rgb(100%,100%,100%);fill-opacity:0.392157;" d="M 6.613281 8.726562 C 6.25 8.726562 5.953125 9.019531 5.953125 9.386719 L 5.953125 9.550781 C 5.953125 9.183594 6.25 8.890625 6.613281 8.890625 L 10.585938 8.890625 C 10.949219 8.890625 11.246094 9.183594 11.246094 9.550781 L 11.246094 9.386719 C 11.246094 9.019531 10.949219 8.726562 10.585938 8.726562 Z M 6.613281 8.726562 "/>
<path style="fill:none;stroke-width:3;stroke-linecap:butt;stroke-linejoin:miter;stroke:rgb(12.941177%,12.941177%,12.941177%);stroke-opacity:1;stroke-miterlimit:4;" d="M 211.604793 -168.629428 L 338.717654 -168.629428 C 350.341544 -168.629428 359.840637 -159.130335 359.840637 -147.506445 L 359.840637 -20.518572 C 359.840637 -8.769694 350.341544 0.604411 338.717654 0.604411 L 211.604793 0.604411 C 199.980903 0.604411 190.48181 -8.769694 190.48181 -20.518572 L 190.48181 -147.506445 C 190.48181 -159.130335 199.980903 -168.629428 211.604793 -168.629428 Z M 211.604793 -168.629428 " transform="matrix(0.031253,0,0,0.031253,0,6.719392)"/>
<path style="fill:none;stroke-width:3;stroke-linecap:butt;stroke-linejoin:miter;stroke:rgb(12.941177%,12.941177%,12.941177%);stroke-opacity:1;stroke-miterlimit:4;" d="M 211.604793 64.223336 L 338.717654 64.223336 C 350.341544 64.223336 359.840637 73.59744 359.840637 85.346318 L 359.840637 212.334192 C 359.840637 224.08307 350.341544 233.457174 338.717654 233.457174 L 211.604793 233.457174 C 199.980903 233.457174 190.48181 224.08307 190.48181 212.334192 L 190.48181 85.346318 C 190.48181 73.59744 199.980903 64.223336 211.604793 64.223336 Z M 211.604793 64.223336 " transform="matrix(0.031253,0,0,0.031253,0,6.719392)"/>
<path style=" stroke:none;fill-rule:nonzero;fill:url(#linear4);" d="M 2.316406 5.085938 L 6.285156 5.085938 C 6.648438 5.085938 6.945312 5.382812 6.945312 5.746094 L 6.945312 9.71875 C 6.945312 10.082031 6.648438 10.378906 6.285156 10.378906 L 2.316406 10.378906 C 1.949219 10.378906 1.652344 10.082031 1.652344 9.71875 L 1.652344 5.746094 C 1.652344 5.382812 1.949219 5.085938 2.316406 5.085938 Z M 2.316406 5.085938 "/>
<path style=" stroke:none;fill-rule:nonzero;fill:rgb(100%,100%,100%);fill-opacity:0.392157;" d="M 6.613281 1.449219 C 6.25 1.449219 5.953125 1.742188 5.953125 2.109375 L 5.953125 2.273438 C 5.953125 1.910156 6.25 1.613281 6.613281 1.613281 L 10.585938 1.613281 C 10.949219 1.613281 11.246094 1.910156 11.246094 2.273438 L 11.246094 2.109375 C 11.246094 1.742188 10.949219 1.449219 10.585938 1.449219 Z M 6.613281 1.449219 "/>
<path style=" stroke:none;fill-rule:nonzero;fill:rgb(0%,0%,0%);fill-opacity:0.235294;" d="M 11.246094 6.078125 C 11.246094 6.445312 10.949219 6.738281 10.585938 6.738281 L 8.929688 6.738281 L 8.929688 6.988281 L 10.585938 6.988281 C 10.949219 6.988281 11.246094 6.691406 11.246094 6.328125 Z M 11.246094 6.078125 "/>
<path style=" stroke:none;fill-rule:nonzero;fill:rgb(100%,100%,100%);fill-opacity:0.392157;" d="M 2.316406 5.085938 C 1.949219 5.085938 1.652344 5.382812 1.652344 5.746094 L 1.652344 5.914062 C 1.652344 5.546875 1.949219 5.25 2.316406 5.25 L 6.285156 5.25 C 6.652344 5.25 6.945312 5.546875 6.945312 5.914062 L 6.945312 5.746094 C 6.945312 5.382812 6.652344 5.085938 6.285156 5.085938 Z M 2.316406 5.085938 "/>
<path style=" stroke:none;fill-rule:nonzero;fill:rgb(0%,0%,0%);fill-opacity:0.235294;" d="M 6.945312 9.71875 C 6.945312 10.082031 6.652344 10.378906 6.285156 10.378906 L 5.953125 10.378906 L 5.953125 10.625 L 6.285156 10.625 C 6.652344 10.625 6.945312 10.332031 6.945312 9.964844 Z M 6.945312 9.71875 "/>
<path style="fill:none;stroke-width:3;stroke-linecap:butt;stroke-linejoin:miter;stroke:rgb(12.941177%,12.941177%,12.941177%);stroke-opacity:1;stroke-miterlimit:4;" d="M 74.117922 -52.26554 L 201.105795 -52.26554 C 212.729685 -52.26554 222.228778 -42.766447 222.228778 -31.142558 L 222.228778 95.970304 C 222.228778 107.594194 212.729685 117.093287 201.105795 117.093287 L 74.117922 117.093287 C 62.369044 117.093287 52.869951 107.594194 52.869951 95.970304 L 52.869951 -31.142558 C 52.869951 -42.766447 62.369044 -52.26554 74.117922 -52.26554 Z M 74.117922 -52.26554 " transform="matrix(0.031253,0,0,0.031253,0,6.719392)"/>
</g>
</svg>
